svg/ao.svg

<?xml version="1.0" encoding="UTF-8"?>
<svg width="450" height="300" xmlns="http://www.w3.org/2000/svg" xmlns:xlink="http://www.w3.org/1999/xlink">
  <rect width="450" height="300" fill="#ce1126"/>
  <rect y="150" width="450" height="150"/>
  <path d="m199.32 114.66h19.616l6.0594-18.656 6.0594 18.656h19.616l-15.867 11.528 6.0594 18.656-15.867-11.528-15.867 11.528 6.0594-18.656-15.867-11.528z" fill="#f9d616"/>
  <path d="m302.62 142.35c0.50081 5.0846 0.50081 10.206 0 15.291l-14.928-1.4703c0.40447-4.1068 0.40447-8.2434 0-12.35l14.928-1.4702m-2.983 30.288c-1.4831 4.8892-3.443 9.6208-5.8515 14.127l-13.229-7.071c1.9453-3.6394 3.5283-7.4611 4.7262-11.41l14.354 4.3543m-14.347 26.84c-3.2412 3.9494-6.8627 7.5709-10.812 10.812l-9.5159-11.595c3.19-2.6179 6.115-5.543 8.7329-8.7329l11.595 9.5159m-23.526 19.307c-4.5059 2.4085-9.2375 4.3684-14.127 5.8515l-4.3543-14.354c3.949-1.1979 7.7707-2.7809 11.41-4.7262l7.071 13.229m-29.124 8.8346c-5.0846 0.50078-10.206 0.50078-15.291 0l1.4703-14.928c4.1068 0.40449 8.2434 0.40449 12.35 0l1.4703 14.928m-30.288-2.9831c-4.8892-1.4831-9.6208-3.443-14.127-5.8515l7.071-13.229c3.6394 1.9453 7.4611 3.5283 11.41 4.7262l-4.3543 14.354m45.284-149.28c4.8892 1.4831 9.6208 3.443 14.127 5.8515l-7.071 13.229c-3.6394-1.9453-7.4611-3.5283-11.41-4.7262l4.3543-14.354m26.84 14.347c3.9495 3.2412 7.5709 6.8627 10.812 10.812l-11.595 9.5159c-2.6179-3.19-5.5429-6.115-8.7329-8.7329l9.5159-11.595m19.307 23.526c2.4085 4.5059 4.3684 9.2376 5.8515 14.127l-14.354 4.3543c-1.1979-3.949-2.7809-7.7707-4.7262-11.41l13.229-7.071z" fill="#f9d616"/>
  <path d="m280.59 224.87 7.292-8.5516c3.8382 3.7143 9.0066 7.3758 12.755 10.703 3.7485 3.3268 6.6205 6.0924 8.9453 9.8717 3.4072 5.5389-0.41885 11.812-5.7242 8.1299-2.869-1.9912-4.6718-7.3666-9.067-11.815-3.2554-2.7713-5.8202-5.6765-14.002-7.0782-0.39283-0.06729-0.50774-0.89728-0.19886-1.2595z" fill="#f9d616"/>
  <path id="path13009" d="m291.41 222.3c5.4e-4 0.36009-0.19126 0.69308-0.50303 0.87329-0.31176 0.18021-0.69604 0.18021-1.0078 0s-0.50356-0.5132-0.50302-0.87329c-5.4e-4 -0.3601 0.19126-0.69309 0.50302-0.8733 0.31177-0.1802 0.69605-0.1802 1.0078 0 0.31177 0.18021 0.50357 0.5132 0.50303 0.8733z"/>
  <path d="m232.5 78.781-1.425 13.35c29.398 3.0832 52.425 27.69 52.425 57.9 2e-5 32.292-26.208 58.5-58.5 58.5-14.079-2e-5 -26.802-5.2037-36.9-13.5l-8.55 10.425c12.426 10.202 28.129 16.575 45.45 16.575 39.744 0 72-32.256 72-72 0-37.171-28.333-67.441-64.5-71.25z" fill="#f9d616"/>
  <path d="m231.36 197.85 20.247 11.972 4.4016 17.078 23.24-1.7606 10.212-11.972-37.854-26.234-20.247 10.916z"/>
  <path d="m279.66 223.69c-26.035-17.314-42.591-26.663-67.542-40.85-9.8016-5.573-25.023-19.582-13.016-43.02 0.75586 15.387 61.569 57.623 87.265 75.988l-6.7071 7.8826z" fill="#f9d616"/>
  <path d="m216.09 167.52c20.046 18.891 45.29 34.302 67.812 51.335" fill="none" stroke="#000" stroke-linecap="round" stroke-width="1.5"/>
  <use transform="translate(7.4196 6.4656)" xlink:href="#path13009"/>
  <use transform="translate(13.938 13.09)" xlink:href="#path13009"/>
</svg>

<?xml version="1.0" encoding="UTF-8"?><svg xmlns="http://www.w3.org/2000/svg" xmlns:xlink="http://www.w3.org/1999/xlink" width="450" height="300">
  <rect width="450" height="300" style="fill:#ce1126"/><rect width="450" height="150" y="150" style="fill:#000"/><path
     d="M 199.32444,114.65618 L 218.94055,114.65618 L 224.99998,96.000328 L 231.0594,114.65618 L 250.67551,114.65618 L 234.80803,126.18448 L 240.86746,144.84033 L 224.99998,133.31202 L 209.1325,144.84033 L 215.19192,126.18448 L 199.32444,114.65618 z"
     style="fill:#f9d616"/>
  <path
     d="M 302.62435,142.35494 C 303.12516,147.43953 303.12516,152.56101 302.62435,157.6456 L 287.69659,156.17534 C 288.10106,152.06855 288.10106,147.93196 287.69659,143.82518 L 302.62435,142.35494 M 299.6413,172.64248 C 298.15817,177.53166 296.19828,182.26331 293.78981,186.76922 L 280.56098,179.69826 C 282.50628,176.05888 284.0893,172.23717 285.28718,168.28821 L 299.6413,172.64248 M 285.29477,199.48295 C 282.05352,203.43239 278.43209,207.05385 274.48262,210.29507 L 264.96672,198.69993 C 268.15668,196.08201 271.08168,193.15698 273.6996,189.96705 L 285.29477,199.48295 M 261.76889,218.79011 C 257.26298,221.19858 252.53136,223.1585 247.64215,224.6416 L 243.28788,210.28751 C 247.23686,209.0896 251.05855,207.50658 254.69794,205.56131 L 261.76889,218.79011 M 232.6453,227.62468 C 227.5607,228.12546 222.4392,228.12546 217.35461,227.62468 L 218.82487,212.6969 C 222.93166,213.10139 227.06825,213.10139 231.17503,212.6969 L 232.6453,227.62468 M 202.35775,224.6416 C 197.46857,223.1585 192.73692,221.19858 188.23102,218.79011 L 195.30197,205.56131 C 198.94135,207.50658 202.76306,209.0896 206.71202,210.28751 L 202.35775,224.6416 M 247.64215,75.358912 C 252.53136,76.84204 257.26298,78.801952 261.76889,81.2104 L 254.69794,94.439224 C 251.05855,92.493928 247.23686,90.910936 243.28788,89.713024 L 247.64215,75.358912 M 274.48262,89.70544 C 278.43209,92.946688 282.05352,96.56812 285.29477,100.51758 L 273.6996,110.03349 C 271.08168,106.84353 268.15668,103.91853 264.96672,101.30061 L 274.48262,89.70544 M 293.78981,113.23132 C 296.19828,117.73722 298.15817,122.46887 299.6413,127.35806 L 285.28718,131.71233 C 284.0893,127.76337 282.50628,123.94166 280.56098,120.30227 L 293.78981,113.23132 z"
     style="fill:#f9d616"/>
  <path
     d="M 280.58665,224.86618 L 287.87869,216.3146 C 291.71694,220.02891 296.88529,223.69038 300.6338,227.01716 C 304.38231,230.34392 307.25434,233.10958 309.57908,236.88884 C 312.98624,242.42773 309.16023,248.7008 303.85486,245.01872 C 300.98581,243.02751 299.18307,237.65214 294.78788,233.20395 C 291.53252,230.43267 288.96764,227.52745 280.78551,226.1257 C 280.39268,226.05841 280.27777,225.22842 280.58665,224.86618 z"
     style="fill:#f9d616"/>
  <path
     d="M 291.40608,222.29687 C 291.40662,222.65696 291.21482,222.98995 290.90305,223.17016 C 290.59129,223.35037 290.20701,223.35037 289.89524,223.17016 C 289.58348,222.98995 289.39168,222.65696 289.39222,222.29687 C 289.39168,221.93677 289.58348,221.60378 289.89524,221.42357 C 290.20701,221.24337 290.59129,221.24337 290.90305,221.42357 C 291.21482,221.60378 291.40662,221.93677 291.40608,222.29687 L 291.40608,222.29687 z"
     id="path13009"
     style="fill:#000"/>
  <path
     d="M 232.5,78.781 L 231.075,92.131 C 260.47298,95.214208 283.5,119.82086 283.5,150.031 C 283.50002,182.32295 257.292,208.531 225,208.531 C 210.92054,208.53098 198.19836,203.3273 188.1,195.031 L 179.55,205.456 C 191.97622,215.65838 207.67944,222.03102 225,222.031 C 264.744,222.031 297,189.77505 297,150.031 C 297,112.86014 268.66694,82.590208 232.5,78.781 z"
     style="fill:#f9d616"/>
  <path
     d="M 231.36058,197.84505 L 251.60791,209.8174 L 256.00949,226.89558 L 279.24991,225.13494 L 289.46162,213.16262 L 251.60791,186.9291 L 231.36058,197.84505 z"
     style="fill:#000"/><path d="M 279.66324,223.6894 C 253.62799,206.37539 237.07238,197.02622 212.12131,182.83938 C 202.31974,177.26634 187.0985,163.25747 199.1052,139.81914 C 199.86106,155.20638 260.67394,197.4423 286.3703,215.80679 L 279.66324,223.6894 z" style="fill:#f9d616"/><path d="M 216.08561,167.51949 C 236.13137,186.41034 261.37565,201.82127 283.89761,218.85496" id="path11763" style="fill:none;fill-opacity:0.75;fill-rule:evenodd;stroke:#000;stroke-width:1.5;stroke-linecap:round;stroke-linejoin:miter;stroke-miterlimit:4;stroke-opacity:1"/><use transform="translate(7.41957,6.4655991)" xlink:href="#path13009"/><use transform="translate(13.93812,13.090317)" xlink:href="#path13009"/></svg>
